assets/eXa_logo_text.svg

<?xml version="1.0" encoding="UTF-8" standalone="no"?>
<svg
   xmlns:dc="http://purl.org/dc/elements/1.1/"
   xmlns:cc="http://creativecommons.org/ns#"
   xmlns:rdf="http://www.w3.org/1999/02/22-rdf-syntax-ns#"
   xmlns:svg="http://www.w3.org/2000/svg"
   xmlns="http://www.w3.org/2000/svg"
   xmlns:sodipodi="http://sodipodi.sourceforge.net/DTD/sodipodi-0.dtd"
   xmlns:inkscape="http://www.inkscape.org/namespaces/inkscape"
   width="49.012451mm"
   height="13.229173mm"
   viewBox="0 0 173.66617 46.875022"
   id="svg2"
   version="1.1"
   inkscape:version="1.0.1 (3bc2e813f5, 2020-09-07)"
   sodipodi:docname="eXa_logo_text.svg">
  <defs
     id="defs4" />
  <sodipodi:namedview
     id="base"
     pagecolor="#ffffff"
     bordercolor="#666666"
     borderopacity="1.0"
     inkscape:pageopacity="0.0"
     inkscape:pageshadow="2"
     inkscape:zoom="7.1985668"
     inkscape:cx="74.072444"
     inkscape:cy="20.182498"
     inkscape:document-units="px"
     inkscape:current-layer="layer1"
     showgrid="false"
     inkscape:window-width="1920"
     inkscape:window-height="1004"
     inkscape:window-x="0"
     inkscape:window-y="25"
     inkscape:window-maximized="1"
     fit-margin-top="0"
     fit-margin-left="0"
     fit-margin-right="0"
     fit-margin-bottom="0"
     inkscape:document-rotation="0">
    <inkscape:grid
       type="xygrid"
       id="grid4136"
       originx="-78.720601"
       originy="-570.18977" />
  </sodipodi:namedview>
  <metadata
     id="metadata7">
    <rdf:RDF>
      <cc:Work
         rdf:about="">
        <dc:format>image/svg+xml</dc:format>
        <dc:type
           rdf:resource="http://purl.org/dc/dcmitype/StillImage" />
        <dc:title />
      </cc:Work>
    </rdf:RDF>
  </metadata>
  <g
     inkscape:label="Layer 1"
     inkscape:groupmode="layer"
     id="layer1"
     transform="translate(-78.720594,-270.77977)">
    <rect
       style="fill:#000000;fill-opacity:1;stroke-width:1.30595"
       id="rect837"
       width="239.92186"
       height="140.43903"
       x="-7.5483861"
       y="339.39551" />
    <g
       transform="matrix(0.74790589,0,0,0.74790589,21.120306,50.750178)"
       id="text4190"
       style="font-style:normal;font-weight:normal;font-size:50px;line-height:125%;font-family:sans-serif;letter-spacing:70px;word-spacing:0px;fill:#ffffff;fill-opacity:1;stroke:none;stroke-width:1px;stroke-linecap:butt;stroke-linejoin:miter;stroke-opacity:1">
      <path
         inkscape:connector-curvature="0"
         id="path4151"
         style="font-style:normal;font-variant:normal;font-weight:normal;font-stretch:normal;font-size:57.5px;font-family:Ubuntu;-inkscape-font-specification:Ubuntu;letter-spacing:70px;fill:#ffffff;fill-opacity:1"
         d="m 77.015423,325.61797 q 0,-3.9675 1.15,-6.9 1.15,-2.99 3.0475,-4.945 1.8975,-1.955 4.37,-2.9325 2.4725,-0.9775 5.06,-0.9775 6.0375,0 9.2575,3.795 3.219997,3.7375 3.219997,11.4425 0,0.345 0,0.92 0,0.5175 -0.0575,0.9775 H 82.592923 q 0.345,4.6575 2.7025,7.0725 2.3575,2.415 7.36,2.415 2.8175,0 4.715,-0.46 1.955,-0.5175 2.932497,-0.9775 l 0.7475,4.485 q -0.9775,0.5175 -3.449997,1.0925 -2.415,0.575 -5.52,0.575 -3.91,0 -6.785,-1.15 -2.8175,-1.2075 -4.6575,-3.2775 -1.84,-2.07 -2.76,-4.8875 -0.8625,-2.875 -0.8625,-6.2675 z m 20.5275,-2.9325 q 0.0575,-3.6225 -1.84,-5.9225 -1.84,-2.3575 -5.1175,-2.3575 -1.84,0 -3.2775,0.7475 -1.38,0.69 -2.3575,1.84 -0.9775,1.15 -1.5525,2.645 -0.5175,1.495 -0.69,3.0475 z" />
      <path
         inkscape:connector-curvature="0"
         id="path4153"
         style="font-style:normal;font-variant:normal;font-weight:normal;font-stretch:normal;font-size:57.5px;font-family:Ubuntu;-inkscape-font-specification:Ubuntu;letter-spacing:70px;fill:#ffffff;fill-opacity:1"
         d="m 145.88828,336.67179 q 1.8975,0 3.335,-0.0575 1.495,-0.115 2.4725,-0.345 v -8.9125 q -0.575,-0.2875 -1.8975,-0.46 -1.265,-0.23 -3.105,-0.23 -1.2075,0 -2.5875,0.1725 -1.3225,0.1725 -2.4725,0.7475 -1.0925,0.5175 -1.84,1.495 -0.7475,0.92 -0.7475,2.4725 0,2.875 1.84,4.025 1.84,1.0925 5.0025,1.0925 z m -0.46,-26.795 q 3.22,0 5.405,0.8625 2.2425,0.805 3.565,2.3575 1.38,1.495 1.955,3.6225 0.575,2.07 0.575,4.6 v 18.6875 q -0.69,0.115 -1.955,0.345 -1.2075,0.1725 -2.76,0.345 -1.5525,0.1725 -3.3925,0.2875 -1.7825,0.1725 -3.565,0.1725 -2.53,0 -4.6575,-0.5175 -2.1275,-0.5175 -3.68,-1.61 -1.5525,-1.15 -2.415,-2.99 -0.8625,-1.84 -0.8625,-4.4275 0,-2.4725 0.9775,-4.255 1.035,-1.7825 2.76,-2.875 1.725,-1.0925 4.025,-1.61 2.3,-0.5175 4.83,-0.5175 0.805,0 1.6675,0.115 0.8625,0.0575 1.61,0.23 0.805,0.115 1.38,0.23 0.575,0.115 0.805,0.1725 v -1.495 q 0,-1.3225 -0.2875,-2.5875 -0.2875,-1.3225 -1.035,-2.3 -0.7475,-1.035 -2.07,-1.61 -1.265,-0.6325 -3.335,-0.6325 -2.645,0 -4.6575,0.4025 -1.955,0.345 -2.9325,0.7475 l -0.6325,-4.4275 q 1.035,-0.46 3.45,-0.8625 2.415,-0.46 5.2325,-0.46 z" />
    </g>
    <path
       sodipodi:nodetypes="sccccssscccsscsscccscsccccssscsccsscccscccscsccccccccsccccccscscsccssssscccccccccccccccccscscscccscsssc"
       inkscape:connector-curvature="0"
       id="path4162"
       d="m 242.20855,282.49852 c 1.1974,0 2.42927,0.0953 3.6948,0.28704 1.26553,0.18158 2.57363,0.46026 3.92676,0.83346 v 4.78124 c -1.19738,-0.55478 -2.36556,-0.9747 -3.50454,-1.25713 -1.13897,-0.28243 -2.21344,-0.42364 -3.22585,-0.42364 -1.34342,0 -2.33638,0.19251 -2.97887,0.57582 -0.64249,0.38329 -0.9646,0.97756 -0.9646,1.78453 0,0.60521 0.21419,1.08017 0.64253,1.42312 0.43805,0.33288 1.22741,0.6208 2.36639,0.86286 l 2.39478,0.49801 c 2.42397,0.50435 4.14621,1.27097 5.16837,2.29985 1.02216,1.02886 1.53364,2.49233 1.53364,4.38868 0,2.49148 -0.71508,4.34749 -2.1461,5.56802 -1.42129,1.21043 -3.59829,1.81564 -6.52848,1.81564 -1.38235,0 -2.76832,-0.13573 -4.16039,-0.40807 -1.3921,-0.27235 -2.78501,-0.67583 -4.1771,-1.21045 v -4.91783 c 1.39209,0.76662 2.7355,1.34618 4.03022,1.73958 1.30449,0.3833 2.56112,0.57581 3.76825,0.57581 1.22658,0 2.16474,-0.21268 2.81697,-0.63633 0.65224,-0.42366 0.97961,-1.02888 0.97961,-1.81566 0,-0.70609 -0.22473,-1.25079 -0.67254,-1.6341 -0.43807,-0.3833 -1.31949,-0.72626 -2.64343,-1.02887 l -2.17448,-0.49974 c -2.18061,-0.48417 -3.77714,-1.25452 -4.78955,-2.31366 -1.00271,-1.05912 -1.50528,-2.48774 -1.50528,-4.28322 0,-2.24938 0.70089,-3.97887 2.10272,-5.18932 1.40182,-1.21043 3.41776,-1.81564 6.04617,-1.81564 z m -99.22046,0.40808 h 5.92936 c 3.30987,0 5.77194,0.24757 7.38793,0.74182 1.62573,0.48418 3.01864,1.31131 4.17709,2.48139 1.02216,1.01879 1.78147,2.19437 2.27796,3.52583 0.49646,1.3315 0.74429,2.83906 0.74429,4.52359 0,1.7047 -0.24783,3.2287 -0.74429,4.57027 -0.49649,1.33147 -1.2558,2.50532 -2.27796,3.5241 -1.16818,1.17008 -2.57002,2.00269 -4.20546,2.49696 -1.63546,0.48419 -4.08864,0.72626 -7.35956,0.72626 h -5.92936 z m 22.26055,0 h 8.58617 c 2.87177,0 4.9745,0.50061 6.30819,1.49922 1.34339,0.9986 2.01593,2.57592 2.01593,4.73453 0,1.49287 -0.35043,2.71974 -1.05137,3.678 -0.69117,0.95826 -1.73892,1.66435 -3.14072,2.11827 0.76905,0.18156 1.45577,0.59427 2.05933,1.23984 0.61329,0.63548 1.23104,1.60381 1.85406,2.90504 l 3.05232,6.41532 h -5.98611 l -2.65845,-5.61297 c -0.53543,-1.12974 -1.08057,-1.90183 -1.63546,-2.3154 -0.54514,-0.41357 -1.27444,-0.62078 -2.18952,-0.62078 h -1.59204 v 8.54915 h -5.62233 z m 20.4499,0 h 5.62229 v 13.54307 c 0,1.86608 0.29206,3.20132 0.87615,4.00826 0.59382,0.79689 1.55673,1.19662 2.89041,1.19662 1.3434,0 2.30801,-0.39972 2.89208,-1.19662 0.59384,-0.80694 0.89117,-2.14218 0.89117,-4.00826 V 282.9066 h 5.62063 v 13.54307 c 0,3.19757 -0.7735,5.57809 -2.32137,7.14158 -1.54782,1.56347 -3.90896,2.3448 -7.08251,2.34477 -3.16384,0 -5.51966,-0.7813 -7.06751,-2.34477 -1.54784,-1.56349 -2.32134,-3.94401 -2.32134,-7.14158 z m 21.73488,0 h 7.15595 l 4.96477,12.09054 4.99315,-12.09054 h 7.14095 v 22.59022 H 226.373 v -16.52247 l -5.0232,12.18044 h -3.56294 l -5.02319,-12.18044 v 16.52247 h -5.33025 z m -36.56245,4.2227 v 5.79454 h 2.36472 c 1.1779,0 2.0204,-0.22739 2.52662,-0.68131 0.51593,-0.45392 0.77434,-1.20034 0.77434,-2.23931 0,-1.02887 -0.25841,-1.76437 -0.77434,-2.20819 -0.50622,-0.44382 -1.34872,-0.66573 -2.52662,-0.66573 z m -22.26058,0.18157 v 13.78342 h 2.01428 c 2.29742,0 4.04971,-0.59054 5.25683,-1.77069 1.21685,-1.18019 1.82571,-2.89497 1.82571,-5.14437 0,-2.23931 -0.60357,-3.94314 -1.81069,-5.11323 -1.20713,-1.17009 -2.96468,-1.75513 -5.27185,-1.75513 z"
       style="fill:#ffffff;fill-opacity:1;stroke:none;stroke-width:0.963019;stroke-linecap:round;stroke-linejoin:round;stroke-miterlimit:4;stroke-dasharray:none;stroke-dashoffset:0;stroke-opacity:1" />
    <g
       aria-label="x"
       id="text841"
       style="font-size:44.7281px;line-height:125%;font-family:sans-serif;-inkscape-font-specification:sans-serif;text-align:center;letter-spacing:0px;word-spacing:0px;text-anchor:middle;fill:#ffffff;fill-opacity:1;stroke:none;stroke-width:4.19326px;stroke-linecap:butt;stroke-linejoin:miter;stroke-opacity:1">
      <path
         d="m 111.64396,293.81472 7.87214,-11.31621 h -4.20444 l -5.63574,8.49834 -5.63574,-8.49834 h -4.249169 l 7.827419,11.49512 -8.2747,11.94241 h 4.24917 l 5.94884,-8.99035 5.85938,8.99035 h 4.33862 z"
         style="font-style:normal;font-variant:normal;font-weight:normal;font-stretch:normal;font-family:FreeSans;-inkscape-font-specification:FreeSans;fill:#ffffff;fill-opacity:1;stroke:none;stroke-width:4.19326px"
         id="path838" />
    </g>
  </g>
</svg>

<?xml version="1.0" encoding="UTF-8" standalone="no"?>
<svg
   xmlns:dc="http://purl.org/dc/elements/1.1/"
   xmlns:cc="http://creativecommons.org/ns#"
   xmlns:rdf="http://www.w3.org/1999/02/22-rdf-syntax-ns#"
   xmlns:svg="http://www.w3.org/2000/svg"
   xmlns="http://www.w3.org/2000/svg"
   xmlns:sodipodi="http://sodipodi.sourceforge.net/DTD/sodipodi-0.dtd"
   xmlns:inkscape="http://www.inkscape.org/namespaces/inkscape"
   width="49.012451mm"
   height="13.229173mm"
   viewBox="0 0 173.66617 46.875022"
   id="svg2"
   version="1.1"
   inkscape:version="1.0.1 (3bc2e813f5, 2020-09-07)"
   sodipodi:docname="eXa_logo_text.svg">
  <defs
     id="defs4" />
  <sodipodi:namedview
     id="base"
     pagecolor="#ffffff"
     bordercolor="#666666"
     borderopacity="1.0"
     inkscape:pageopacity="0.0"
     inkscape:pageshadow="2"
     inkscape:zoom="7.1985668"
     inkscape:cx="74.072444"
     inkscape:cy="20.182498"
     inkscape:document-units="px"
     inkscape:current-layer="layer1"
     showgrid="false"
     inkscape:window-width="1920"
     inkscape:window-height="1004"
     inkscape:window-x="0"
     inkscape:window-y="25"
     inkscape:window-maximized="1"
     fit-margin-top="0"
     fit-margin-left="0"
     fit-margin-right="0"
     fit-margin-bottom="0"
     inkscape:document-rotation="0">
    <inkscape:grid
       type="xygrid"
       id="grid4136"
       originx="-78.720601"
       originy="-570.18977" />
  </sodipodi:namedview>
  <metadata
     id="metadata7">
    <rdf:RDF>
      <cc:Work
         rdf:about="">
        <dc:format>image/svg+xml</dc:format>
        <dc:type
           rdf:resource="http://purl.org/dc/dcmitype/StillImage" />
        <dc:title />
      </cc:Work>
    </rdf:RDF>
  </metadata>
  <g
     inkscape:label="Layer 1"
     inkscape:groupmode="layer"
     id="layer1"
     transform="translate(-78.720594,-270.77977)">
    <rect
       style="fill:#000000;fill-opacity:1;stroke-width:1.30595"
       id="rect837"
       width="239.92186"
       height="140.43903"
       x="3.4860084"
       y="325.44281" />
    <g
       transform="matrix(0.74790589,0,0,0.74790589,21.120306,50.750178)"
       id="text4190"
       style="font-style:normal;font-weight:normal;font-size:50px;line-height:125%;font-family:sans-serif;letter-spacing:70px;word-spacing:0px;fill:#ffffff;fill-opacity:1;stroke:none;stroke-width:1px;stroke-linecap:butt;stroke-linejoin:miter;stroke-opacity:1">
      <path
         inkscape:connector-curvature="0"
         id="path4151"
         style="font-style:normal;font-variant:normal;font-weight:normal;font-stretch:normal;font-size:57.5px;font-family:Ubuntu;-inkscape-font-specification:Ubuntu;letter-spacing:70px;fill:#ffffff;fill-opacity:1"
         d="m 77.015423,325.61797 q 0,-3.9675 1.15,-6.9 1.15,-2.99 3.0475,-4.945 1.8975,-1.955 4.37,-2.9325 2.4725,-0.9775 5.06,-0.9775 6.0375,0 9.2575,3.795 3.219997,3.7375 3.219997,11.4425 0,0.345 0,0.92 0,0.5175 -0.0575,0.9775 H 82.592923 q 0.345,4.6575 2.7025,7.0725 2.3575,2.415 7.36,2.415 2.8175,0 4.715,-0.46 1.955,-0.5175 2.932497,-0.9775 l 0.7475,4.485 q -0.9775,0.5175 -3.449997,1.0925 -2.415,0.575 -5.52,0.575 -3.91,0 -6.785,-1.15 -2.8175,-1.2075 -4.6575,-3.2775 -1.84,-2.07 -2.76,-4.8875 -0.8625,-2.875 -0.8625,-6.2675 z m 20.5275,-2.9325 q 0.0575,-3.6225 -1.84,-5.9225 -1.84,-2.3575 -5.1175,-2.3575 -1.84,0 -3.2775,0.7475 -1.38,0.69 -2.3575,1.84 -0.9775,1.15 -1.5525,2.645 -0.5175,1.495 -0.69,3.0475 z" />
      <path
         inkscape:connector-curvature="0"
         id="path4153"
         style="font-style:normal;font-variant:normal;font-weight:normal;font-stretch:normal;font-size:57.5px;font-family:Ubuntu;-inkscape-font-specification:Ubuntu;letter-spacing:70px;fill:#ffffff;fill-opacity:1"
         d="m 145.88828,336.67179 q 1.8975,0 3.335,-0.0575 1.495,-0.115 2.4725,-0.345 v -8.9125 q -0.575,-0.2875 -1.8975,-0.46 -1.265,-0.23 -3.105,-0.23 -1.2075,0 -2.5875,0.1725 -1.3225,0.1725 -2.4725,0.7475 -1.0925,0.5175 -1.84,1.495 -0.7475,0.92 -0.7475,2.4725 0,2.875 1.84,4.025 1.84,1.0925 5.0025,1.0925 z m -0.46,-26.795 q 3.22,0 5.405,0.8625 2.2425,0.805 3.565,2.3575 1.38,1.495 1.955,3.6225 0.575,2.07 0.575,4.6 v 18.6875 q -0.69,0.115 -1.955,0.345 -1.2075,0.1725 -2.76,0.345 -1.5525,0.1725 -3.3925,0.2875 -1.7825,0.1725 -3.565,0.1725 -2.53,0 -4.6575,-0.5175 -2.1275,-0.5175 -3.68,-1.61 -1.5525,-1.15 -2.415,-2.99 -0.8625,-1.84 -0.8625,-4.4275 0,-2.4725 0.9775,-4.255 1.035,-1.7825 2.76,-2.875 1.725,-1.0925 4.025,-1.61 2.3,-0.5175 4.83,-0.5175 0.805,0 1.6675,0.115 0.8625,0.0575 1.61,0.23 0.805,0.115 1.38,0.23 0.575,0.115 0.805,0.1725 v -1.495 q 0,-1.3225 -0.2875,-2.5875 -0.2875,-1.3225 -1.035,-2.3 -0.7475,-1.035 -2.07,-1.61 -1.265,-0.6325 -3.335,-0.6325 -2.645,0 -4.6575,0.4025 -1.955,0.345 -2.9325,0.7475 l -0.6325,-4.4275 q 1.035,-0.46 3.45,-0.8625 2.415,-0.46 5.2325,-0.46 z" />
    </g>
    <path
       sodipodi:nodetypes="sccccssscccsscsscccscsccccssscsccsscccscccscsccccccccsccccccscscsccssssscccccccccccccccccscscscccscsssc"
       inkscape:connector-curvature="0"
       id="path4162"
       d="m 242.20855,282.49852 c 1.1974,0 2.42927,0.0953 3.6948,0.28704 1.26553,0.18158 2.57363,0.46026 3.92676,0.83346 v 4.78124 c -1.19738,-0.55478 -2.36556,-0.9747 -3.50454,-1.25713 -1.13897,-0.28243 -2.21344,-0.42364 -3.22585,-0.42364 -1.34342,0 -2.33638,0.19251 -2.97887,0.57582 -0.64249,0.38329 -0.9646,0.97756 -0.9646,1.78453 0,0.60521 0.21419,1.08017 0.64253,1.42312 0.43805,0.33288 1.22741,0.6208 2.36639,0.86286 l 2.39478,0.49801 c 2.42397,0.50435 4.14621,1.27097 5.16837,2.29985 1.02216,1.02886 1.53364,2.49233 1.53364,4.38868 0,2.49148 -0.71508,4.34749 -2.1461,5.56802 -1.42129,1.21043 -3.59829,1.81564 -6.52848,1.81564 -1.38235,0 -2.76832,-0.13573 -4.16039,-0.40807 -1.3921,-0.27235 -2.78501,-0.67583 -4.1771,-1.21045 v -4.91783 c 1.39209,0.76662 2.7355,1.34618 4.03022,1.73958 1.30449,0.3833 2.56112,0.57581 3.76825,0.57581 1.22658,0 2.16474,-0.21268 2.81697,-0.63633 0.65224,-0.42366 0.97961,-1.02888 0.97961,-1.81566 0,-0.70609 -0.22473,-1.25079 -0.67254,-1.6341 -0.43807,-0.3833 -1.31949,-0.72626 -2.64343,-1.02887 l -2.17448,-0.49974 c -2.18061,-0.48417 -3.77714,-1.25452 -4.78955,-2.31366 -1.00271,-1.05912 -1.50528,-2.48774 -1.50528,-4.28322 0,-2.24938 0.70089,-3.97887 2.10272,-5.18932 1.40182,-1.21043 3.41776,-1.81564 6.04617,-1.81564 z m -99.22046,0.40808 h 5.92936 c 3.30987,0 5.77194,0.24757 7.38793,0.74182 1.62573,0.48418 3.01864,1.31131 4.17709,2.48139 1.02216,1.01879 1.78147,2.19437 2.27796,3.52583 0.49646,1.3315 0.74429,2.83906 0.74429,4.52359 0,1.7047 -0.24783,3.2287 -0.74429,4.57027 -0.49649,1.33147 -1.2558,2.50532 -2.27796,3.5241 -1.16818,1.17008 -2.57002,2.00269 -4.20546,2.49696 -1.63546,0.48419 -4.08864,0.72626 -7.35956,0.72626 h -5.92936 z m 22.26055,0 h 8.58617 c 2.87177,0 4.9745,0.50061 6.30819,1.49922 1.34339,0.9986 2.01593,2.57592 2.01593,4.73453 0,1.49287 -0.35043,2.71974 -1.05137,3.678 -0.69117,0.95826 -1.73892,1.66435 -3.14072,2.11827 0.76905,0.18156 1.45577,0.59427 2.05933,1.23984 0.61329,0.63548 1.23104,1.60381 1.85406,2.90504 l 3.05232,6.41532 h -5.98611 l -2.65845,-5.61297 c -0.53543,-1.12974 -1.08057,-1.90183 -1.63546,-2.3154 -0.54514,-0.41357 -1.27444,-0.62078 -2.18952,-0.62078 h -1.59204 v 8.54915 h -5.62233 z m 20.4499,0 h 5.62229 v 13.54307 c 0,1.86608 0.29206,3.20132 0.87615,4.00826 0.59382,0.79689 1.55673,1.19662 2.89041,1.19662 1.3434,0 2.30801,-0.39972 2.89208,-1.19662 0.59384,-0.80694 0.89117,-2.14218 0.89117,-4.00826 V 282.9066 h 5.62063 v 13.54307 c 0,3.19757 -0.7735,5.57809 -2.32137,7.14158 -1.54782,1.56347 -3.90896,2.3448 -7.08251,2.34477 -3.16384,0 -5.51966,-0.7813 -7.06751,-2.34477 -1.54784,-1.56349 -2.32134,-3.94401 -2.32134,-7.14158 z m 21.73488,0 h 7.15595 l 4.96477,12.09054 4.99315,-12.09054 h 7.14095 v 22.59022 H 226.373 v -16.52247 l -5.0232,12.18044 h -3.56294 l -5.02319,-12.18044 v 16.52247 h -5.33025 z m -36.56245,4.2227 v 5.79454 h 2.36472 c 1.1779,0 2.0204,-0.22739 2.52662,-0.68131 0.51593,-0.45392 0.77434,-1.20034 0.77434,-2.23931 0,-1.02887 -0.25841,-1.76437 -0.77434,-2.20819 -0.50622,-0.44382 -1.34872,-0.66573 -2.52662,-0.66573 z m -22.26058,0.18157 v 13.78342 h 2.01428 c 2.29742,0 4.04971,-0.59054 5.25683,-1.77069 1.21685,-1.18019 1.82571,-2.89497 1.82571,-5.14437 0,-2.23931 -0.60357,-3.94314 -1.81069,-5.11323 -1.20713,-1.17009 -2.96468,-1.75513 -5.27185,-1.75513 z"
       style="fill:#ffffff;fill-opacity:1;stroke:none;stroke-width:0.963019;stroke-linecap:round;stroke-linejoin:round;stroke-miterlimit:4;stroke-dasharray:none;stroke-dashoffset:0;stroke-opacity:1" />
    <g
       aria-label="x"
       id="text841"
       style="font-size:44.7281px;line-height:125%;font-family:sans-serif;-inkscape-font-specification:sans-serif;text-align:center;letter-spacing:0px;word-spacing:0px;text-anchor:middle;fill:#ffffff;fill-opacity:1;stroke:none;stroke-width:4.19326px;stroke-linecap:butt;stroke-linejoin:miter;stroke-opacity:1">
      <path
         id="path838"
         style="font-style:normal;font-variant:normal;font-weight:normal;font-stretch:normal;font-family:FreeSans;-inkscape-font-specification:FreeSans;fill:#ffffff;fill-opacity:1;stroke:none;stroke-width:4.19326px"
         sodipodi:type="inkscape:offset"
         inkscape:radius="0"
         inkscape:original="M 99.791016 282.49805 L 107.61914 293.99414 L 99.34375 305.93555 L 103.59375 305.93555 L 109.54102 296.94531 L 115.40039 305.93555 L 119.74023 305.93555 L 111.64453 293.81445 L 119.51562 282.49805 L 115.3125 282.49805 L 109.67578 290.99609 L 104.04102 282.49805 L 99.791016 282.49805 z "
         d="m 99.791016,282.49805 7.828124,11.49609 -8.27539,11.94141 h 4.25 l 5.94727,-8.99024 5.85937,8.99024 h 4.33984 l -8.0957,-12.1211 7.87109,-11.3164 h -4.20312 l -5.63672,8.49804 -5.63476,-8.49804 z" />
    </g>
  </g>
</svg>
